X: 10151
Q: "Slowish"
M: C
L: 1/16
K: G
gg3 b2g2 a3gf3d | ee3 g3e d3c B2G2 |
gg3 b2g2 a3gf2d2 | e3g fgaf g4 g2ab |\
c'3ab3g a3ge2g2 | (ed).c.B g3B (cBAG) A2B2 |\
!p!gb3gb3 f2a2d4 | e3fg3e d3cB3G |
(3(g2a2b2) (3(g2a2b2) (3(f2g2a2) d4 | e3g fgaf g4 g2ab |\
.e2.c'2.d2.b2 .c2.a2.B2.g2 | Bcdc B2G2 A3G F2D2 |\
(3G2A2B2 (3A2B2c2 (3B2c2d2 (3c2d2e2 | d3g (ba).g.f (ag).f.e (dc).B.A !segno!|]


